images/workflows.svg

<svg enable-background="new 0 0 512 512" height="512" viewBox="0 0 512 512" width="512" xmlns="http://www.w3.org/2000/svg"><g fill="#a2abbd"><path d="m0 332v180h210v-180zm180 150h-150v-60h150zm0-90h-150v-30h150z"/><path d="m271 241v-31h-30v31h-151v61h30v-31h272v31h30v-61z"/><path d="m302 332v180h210v-180zm180 150h-150v-60h150zm0-90h-150v-30h150z"/><path d="m151 0v180h210v-180zm180 150h-150v-60h150zm0-90h-150v-30h150z"/></g></svg>

<?xml version="1.0" encoding="iso-8859-1"?>
<!-- Generator: Adobe Illustrator 19.0.0, SVG Export Plug-In . SVG Version: 6.00 Build 0)  -->
<svg xmlns="http://www.w3.org/2000/svg" xmlns:xlink="http://www.w3.org/1999/xlink" version="1.1" id="Capa_1" x="0px" y="0px" viewBox="0 0 512 512" style="enable-background:new 0 0 512 512;" xml:space="preserve" width="512px" height="512px">
<g>
	<g>
		<path d="M0,332v180h210V332H0z M180,482H30v-60h150V482z M180,392H30v-30h150V392z" fill="#a2abbd"/>
	</g>
</g>
<g>
	<g>
		<polygon points="271,241 271,210 241,210 241,241 90,241 90,302 120,302 120,271 392,271 392,302 422,302 422,241   " fill="#a2abbd"/>
	</g>
</g>
<g>
	<g>
		<path d="M302,332v180h210V332H302z M482,482H332v-60h150V482z M482,392H332v-30h150V392z" fill="#a2abbd"/>
	</g>
</g>
<g>
	<g>
		<path d="M151,0v180h210V0H151z M331,150H181V90h150V150z M331,60H181V30h150V60z" fill="#a2abbd"/>
	</g>
</g>
<g>
</g>
<g>
</g>
<g>
</g>
<g>
</g>
<g>
</g>
<g>
</g>
<g>
</g>
<g>
</g>
<g>
</g>
<g>
</g>
<g>
</g>
<g>
</g>
<g>
</g>
<g>
</g>
<g>
</g>
</svg>
